packages/icons/src/components/CategoryIcon/assets/business-details.svg

<svg width="20" height="20" viewBox="0 0 20 20" fill="none" xmlns="http://www.w3.org/2000/svg">
<path d="M9.99989 8C10.8283 8 11.4999 8.67157 11.4999 9.5C11.4999 10.3284 10.8283 11 9.99989 11C9.17151 10.9999 8.49989 10.3284 8.49989 9.5C8.49989 8.67161 9.17151 8.00006 9.99989 8ZM10.9999 1.5C12.2789 1.5 13.1505 1.99002 13.6151 2.79102C14.017 3.48376 13.9999 4.24471 13.9999 4.5V5.5H11.9999V4.5C11.9999 4.20306 11.9828 3.96409 11.8847 3.79492C11.8491 3.73361 11.7983 3.67494 11.6991 3.62402C11.5909 3.56862 11.3806 3.5 10.9999 3.5H8.99989C8.61912 3.50001 8.40886 3.56862 8.30067 3.62402C8.2015 3.67494 8.15069 3.73361 8.11513 3.79492C8.01706 3.96409 7.99989 4.20308 7.99989 4.5V5.5H5.99989V4.5C5.99989 4.24471 5.98284 3.48375 6.38466 2.79102C6.84931 1.99002 7.72095 1.50003 8.99989 1.5H10.9999Z" fill="#A060F6" className="fillStrong"/>
<path d="M16 8.16699C16 7.74883 15.7185 7.45923 15.4189 7.41309C14.5678 7.28197 13.7065 7.18148 12.8369 7.1123C11.901 7.03785 10.9549 7 10 7C9.04512 7 8.09904 7.03785 7.16309 7.1123C6.29354 7.18149 5.43218 7.28197 4.58105 7.41309C4.28151 7.45923 4 7.74883 4 8.16699V10.1846C4 10.3517 4.02766 10.5541 4.08203 10.7295C4.14173 10.922 4.20068 10.9775 4.18848 10.9668L4.27734 11.0312C4.30858 11.0495 4.3415 11.0644 4.37598 11.0762C6.12588 11.6752 7.99788 12 9.94531 12C11.8927 12 13.7648 11.6751 15.5146 11.0762C15.5837 11.0525 15.6463 11.0158 15.7021 10.9668C15.73 10.9423 15.814 10.8399 15.8926 10.6475C15.9681 10.4623 16 10.2888 16 10.1846V8.16699ZM15.3867 13.2148C13.6577 13.7256 11.832 14 9.94531 14C8.0767 14 6.26795 13.7308 4.55371 13.2295L4.58301 14.9014C4.5831 14.9069 4.58301 14.9124 4.58301 14.918C4.58301 15.3417 4.87172 15.6314 5.1748 15.6729C6.753 15.8886 8.36361 16 10 16C11.6364 16 13.247 15.8886 14.8252 15.6729C15.0904 15.6366 15.344 15.4102 15.4033 15.0703L15.417 14.918L15.3867 13.2148ZM18 10.1846C18 10.6008 17.8957 11.0331 17.7441 11.4043C17.653 11.6275 17.5284 11.8652 17.3682 12.085L17.417 14.9014C17.4171 14.9069 17.417 14.9124 17.417 14.918C17.417 16.2469 16.481 17.4648 15.0967 17.6543C13.429 17.8823 11.7273 18 10 18C8.27266 18 6.57104 17.8823 4.90332 17.6543C3.5244 17.4656 2.59128 16.2565 2.58398 14.9336L2.58301 14.9346L2.53613 12.0889C2.36066 11.8339 2.24564 11.5601 2.17188 11.3223C2.05372 10.9413 2 10.5379 2 10.1846V8.16699C2 6.85402 2.913 5.64659 4.27637 5.43652C5.17576 5.29797 6.08542 5.19222 7.00391 5.11914C7.99271 5.04047 8.99197 5 10 5C11.008 5 12.0073 5.04047 12.9961 5.11914C13.9146 5.19222 14.8242 5.29797 15.7236 5.43652C17.087 5.64659 18 6.85402 18 8.16699V10.1846Z" fill="#521094" className="fill"/>
</svg>

<svg xmlns="http://www.w3.org/2000/svg" width="20" height="20" fill="none" viewBox="0 0 20 20">
    <path fill="#a060f6" d="M10 8a1.5 1.5 0 1 1 0 3 1.5 1.5 0 0 1 0-3m1-6.5c1.279 0 2.15.49 2.615 1.291.402.693.385 1.454.385 1.709v1h-2v-1c0-.297-.017-.536-.115-.705a.42.42 0 0 0-.186-.171c-.108-.055-.318-.124-.7-.124H9c-.38 0-.59.069-.698.124-.1.05-.15.11-.186.17-.098.17-.115.41-.115.706v1H6v-1c0-.255-.017-1.016.385-1.709C6.849 1.99 7.72 1.5 9 1.5z" className="fillStrong"/>
    <path fill="#521094" d="M16 8.167c0-.418-.281-.708-.581-.754A35.4 35.4 0 0 0 10 7a36 36 0 0 0-5.419.413c-.3.046-.581.336-.581.754v2.018c0 .167.028.37.082.544.06.193.119.248.106.238l.09.064a.5.5 0 0 0 .098.045 17.2 17.2 0 0 0 5.57.924 17.2 17.2 0 0 0 5.569-.924.6.6 0 0 0 .187-.11 1 1 0 0 0 .19-.318c.076-.186.108-.36.108-.463zm-.613 5.048c-1.73.51-3.555.785-5.442.785a19.2 19.2 0 0 1-5.391-.77l.029 1.671v.017c0 .424.289.713.592.755a35.6 35.6 0 0 0 9.65 0c.265-.036.519-.263.578-.603l.014-.152zM18 10.185c0 .416-.104.848-.256 1.22-.091.223-.216.46-.376.68l.049 2.816v.017c0 1.329-.936 2.547-2.32 2.736a37.6 37.6 0 0 1-10.194 0c-1.379-.188-2.312-1.398-2.319-2.72h-.001l-.047-2.845a2.9 2.9 0 0 1-.364-.767A4 4 0 0 1 2 10.185V8.167c0-1.313.913-2.52 2.276-2.73A37.4 37.4 0 0 1 10 5a38 38 0 0 1 5.724.437C17.087 5.647 18 6.854 18 8.167z" className="fill"/>
</svg>
